usr/share/icons/biglinux-icons-material-dark/symbolic/actions/gtk-index.svg

<svg xmlns="http://www.w3.org/2000/svg" viewBox="0 0 16 16">
<defs id="defs3051">
<style id="current-color-scheme" type="text/css">
.ColorScheme-Contrast{color:#dedede}
</style>
</defs>
<path d="M2 2v1h6V2zm9 0v1h1v2h-1v1h3V5h-1V3h1V2zM5 4v1h1V4zm2 0v1h1V4zm2 0v1h1V4zM2 8v1h4V8zm7 0v1h1v2H9v1h5v-1h-1V9h1V8zm2 1h1v2h-1zm-8 1v1h1v-1zm2 0v1h1v-1zm2 0v1h1v-1z" class="ColorScheme-Contrast" style="fill:currentColor;fill-opacity:1;stroke:none"/>
</svg>

<svg xmlns="http://www.w3.org/2000/svg" viewBox="0 0 16 16">
  <defs id="defs3051">
    <style type="text/css" id="current-color-scheme">
      .ColorScheme-Text {
        color:#dedede;
      }
      </style>
  </defs>
 <path style="fill:currentColor;fill-opacity:1;stroke:none" 
     d="M 2 2 L 2 3 L 8 3 L 8 2 L 2 2 z M 11 2 L 11 3 L 12 3 L 12 5 L 11 5 L 11 6 L 14 6 L 14 5 L 13 5 L 13 3 L 14 3 L 14 2 L 11 2 z M 5 4 L 5 5 L 6 5 L 6 4 L 5 4 z M 7 4 L 7 5 L 8 5 L 8 4 L 7 4 z M 9 4 L 9 5 L 10 5 L 10 4 L 9 4 z M 2 8 L 2 9 L 6 9 L 6 8 L 2 8 z M 9 8 L 9 9 L 10 9 L 10 11 L 9 11 L 9 12 L 11 12 L 12 12 L 14 12 L 14 11 L 13 11 L 13 9 L 14 9 L 14 8 L 12 8 L 11 8 L 9 8 z M 11 9 L 12 9 L 12 11 L 11 11 L 11 9 z M 3 10 L 3 11 L 4 11 L 4 10 L 3 10 z M 5 10 L 5 11 L 6 11 L 6 10 L 5 10 z M 7 10 L 7 11 L 8 11 L 8 10 L 7 10 z "
     class="ColorScheme-Text"
     />
</svg>
